Yaru++/status/symbolic/phonelink-setup-symbolic.svg

<svg height="16" width="16" xmlns="http://www.w3.org/2000/svg">
  <path d="m5.5 0c-.542 0-.984.064-1.36.23a1.72 1.72 0 0 0 -.837.797c-.34.68-.303 1.473-.303 2.473v9c0 1-.037 1.796.303 2.475.17.34.462.628.838.795.375.166.817.23 1.359.23h5c.542 0 .984-.064 1.36-.23.375-.167.668-.456.837-.795.34-.68.303-1.475.303-2.475v-9c0-1 .037-1.794-.303-2.473a1.72 1.72 0 0 0 -.838-.796c-.375-.167-.817-.231-1.359-.231zm-1.43 2h7.86c.05.373.07.87.07 1.5v9c0 .63-.02 1.126-.07 1.5h-7.86c-.05-.374-.07-.87-.07-1.5v-9c0-.63.02-1.127.07-1.5z" fill="#808080"/>
  <rect fill="#ff375f" fill-opacity=".990868" height="15" rx="7.5" transform="matrix(0 -.53333333 -.53333333 0 .233333 3.233333)" width="15" x="-15.5" y="-15.5"/>
  <path d="m140.03975-343.99234h16v16h-16z" fill="none" opacity=".75" transform="matrix(0 .31095515 -.31095515 0 -99.980826 -38.521364)"/>
  <path d="m4.9060913 5.0185322-.8183811.1232126v.3378898c-.2108976.0430866-.4052787.1247244-.5879055.2263937l-.2675906-.3163465-.6230551.5292851.2675906.3182362c-.1285039.1632756-.2331969.343559-.3084095.5410394l-.4179779-.0740788-.1387087.8066268.4218709.0740787c.00756.2105197.049134.411326.1152756.6015496l-.3828284.2207245.4140851.7070362.3827905-.2207244c.1356851.1508031.2910236.2789296.4648441.3847936l-.1542047.423799.7714772.2755272.1523149-.4218712c.1001575.01512.200315.03024.3046299.03024.1016693 0 .1991811-.0189.2970709-.03024l.1542047.4257642.7675843-.2849762-.1504252-.416013c.1742362-.105827.3310866-.2339528.4668095-.3847559l.3828283.2207244.4042961-.7109291-.3711496-.2146772c.06652-.1912441.1077165-.3936.1152756-.6054803l.4199433-.0740788-.1485355-.8066267-.4062614.0721889c-.0755905-.1980472-.1810394-.3791244-.3106772-.5429669l.2675906-.3182362-.6308788-.5214992-.2615433.3106771c-.184063-.1020472-.3792378-.1844409-.5917606-.2263937zm-.4043338.8339906c.9192189 0 1.6582299.7409386 1.6582299 1.6601575s-.739011 1.6601574-1.6582299 1.6601574-1.6601197-.7409385-1.6601197-1.6601574.7409008-1.6601575 1.6601197-1.6601575zm0 .4140472c-.685115 0-1.2460725.5609953-1.2460725 1.2461103 0 .6851149.5609575 1.2441449 1.2460725 1.2441449.6851149 0 1.2441449-.55903 1.2441449-1.2441449 0-.685115-.55903-1.2461103-1.2441449-1.2461103zm0 .4160504c.4608756 0 .8300976.3692599.8300976.8300599 0 .4608378-.3692598.8300976-.8300976.8300976s-.8300599-.3692598-.8300599-.8300976.3692599-.8300599.8300599-.8300599z" fill="#fff" fill-opacity=".990868"/>
</svg>

<?xml version="1.0" encoding="UTF-8" standalone="no"?>
<svg
   xmlns:dc="http://purl.org/dc/elements/1.1/"
   xmlns:cc="http://creativecommons.org/ns#"
   xmlns:rdf="http://www.w3.org/1999/02/22-rdf-syntax-ns#"
   xmlns:svg="http://www.w3.org/2000/svg"
   xmlns="http://www.w3.org/2000/svg"
   xmlns:sodipodi="http://sodipodi.sourceforge.net/DTD/sodipodi-0.dtd"
   xmlns:inkscape="http://www.inkscape.org/namespaces/inkscape"
   height="16"
   width="16"
   version="1.1"
   id="svg4"
   sodipodi:docname="4.svg"
   inkscape:version="0.92.4 (5da689c313, 2019-01-14)">
  <metadata
     id="metadata10">
    <rdf:RDF>
      <cc:Work
         rdf:about="">
        <dc:format>image/svg+xml</dc:format>
        <dc:type
           rdf:resource="http://purl.org/dc/dcmitype/StillImage" />
        <dc:title></dc:title>
      </cc:Work>
    </rdf:RDF>
  </metadata>
  <defs
     id="defs8" />
  <sodipodi:namedview
     pagecolor="#ffffff"
     bordercolor="#808080"
     borderopacity="1"
     objecttolerance="10"
     gridtolerance="10"
     guidetolerance="10"
     inkscape:pageopacity="0"
     inkscape:pageshadow="2"
     inkscape:window-width="1920"
     inkscape:window-height="1016"
     id="namedview6"
     showgrid="false"
     inkscape:zoom="52.4375"
     inkscape:cx="6.7505911"
     inkscape:cy="8"
     inkscape:window-x="0"
     inkscape:window-y="27"
     inkscape:window-maximized="1"
     inkscape:current-layer="svg4" />
  <path
     d="M5.5 0c-.542 0-.984.064-1.36.23a1.72 1.72 0 0 0-.837.797C2.963 1.707 3 2.5 3 3.5v9c0 1-.037 1.796.303 2.475.17.34.462.628.838.795.375.166.817.23 1.359.23h5c.542 0 .984-.064 1.36-.23.375-.167.668-.456.837-.795.34-.68.303-1.475.303-2.475v-9c0-1 .037-1.794-.303-2.473a1.72 1.72 0 0 0-.838-.796C11.484.064 11.042 0 10.5 0zM4.07 2h7.86c.05.373.07.87.07 1.5v9c0 .63-.02 1.126-.07 1.5H4.07c-.05-.374-.07-.87-.07-1.5v-9c0-.63.02-1.127.07-1.5z"
     style="line-height:normal;font-variant-ligatures:normal;font-variant-position:normal;font-variant-caps:normal;font-variant-numeric:normal;font-variant-alternates:normal;font-feature-settings:normal;text-indent:0;text-align:start;text-decoration-line:none;text-decoration-style:solid;text-decoration-color:#000;text-transform:none;text-orientation:mixed;shape-padding:0;isolation:auto;mix-blend-mode:normal;marker:none"
     color="#000"
     font-weight="400"
     font-family="sans-serif"
     white-space="normal"
     overflow="visible"
     fill="gray"
     id="path2" />
  <g
     id="g881"
     transform="matrix(0.53333333,0,0,0.53333333,0.23333334,3.2333334)"
     style="fill:#f504c7;fill-opacity:0.99086756">
    <rect
       id="rect861"
       style="fill:#f504c7;fill-opacity:0.99086756"
       transform="matrix(0,-1,-1,0,0,0)"
       ry="7.5"
       rx="7.5"
       y="-15.5"
       x="-15.5"
       height="15"
       width="15" />
  </g>
  <g
     transform="matrix(0.31095515,0,0,0.31095515,-99.980826,-38.521364)"
     style="display:inline;opacity:0.75;stroke-width:1.3345542;enable-background:new"
     id="g1044">
    <rect
       style="color:#000000;display:inline;overflow:visible;visibility:visible;fill:none;stroke:none;stroke-width:0.88952684;marker:none;enable-background:accumulate"
       id="rect1036"
       width="16"
       height="16"
       x="140.03975"
       y="-343.99234"
       transform="rotate(90)" />
  </g>
  <path
     inkscape:connector-curvature="0"
     style="color:#000000;display:inline;overflow:visible;visibility:visible;opacity:1;fill:#ffffff;fill-opacity:0.99086758;fill-rule:nonzero;stroke:none;stroke-width:0.13832885;marker:none;enable-background:accumulate"
     d="M 4.9060913,5.0185322 4.0877102,5.1417448 V 5.4796346 C 3.8768126,5.5227212 3.6824315,5.604359 3.4998047,5.7060283 L 3.2322141,5.3896818 2.609159,5.9189669 2.8767496,6.2372031 C 2.7482457,6.4004787 2.6435527,6.5807621 2.5683401,6.7782425 L 2.1503622,6.7041637 2.0116535,7.5107905 2.4335244,7.5848692 c 0.00756,0.2105197 0.049134,0.411326 0.1152756,0.6015496 L 2.1659716,8.4071433 2.5800567,9.1141795 2.9628472,8.8934551 C 3.0985323,9.0442582 3.2538708,9.1723847 3.4276913,9.2782487 L 3.2734866,9.7020477 4.0449638,9.9775749 4.1972787,9.5557037 c 0.1001575,0.01512 0.200315,0.03024 0.3046299,0.03024 0.1016693,0 0.1991811,-0.0189 0.2970709,-0.03024 L 4.9531842,9.9814679 5.7207685,9.6964917 5.5703433,9.2804787 C 5.7445795,9.1746517 5.9014299,9.0465259 6.0371528,8.8957228 L 6.4199811,9.1164472 6.8242772,8.4055181 6.4531276,8.1908409 c 0.06652,-0.1912441 0.1077165,-0.3936 0.1152756,-0.6054803 L 6.9883465,7.5112818 6.839811,6.7046551 6.4335496,6.776844 C 6.3579591,6.5787968 6.2525102,6.3977196 6.1228724,6.2338771 L 6.390463,5.9156409 5.7595842,5.3941417 5.4980409,5.7048188 C 5.3139779,5.6027716 5.1188031,5.5203779 4.9062803,5.4784251 Z M 4.5017575,5.8525228 c 0.9192189,0 1.6582299,0.7409386 1.6582299,1.6601575 0,0.9192189 -0.739011,1.6601574 -1.6582299,1.6601574 -0.9192189,0 -1.6601197,-0.7409385 -1.6601197,-1.6601574 0,-0.9192189 0.7409008,-1.6601575 1.6601197,-1.6601575 z m 0,0.4140472 c -0.685115,0 -1.2460725,0.5609953 -1.2460725,1.2461103 0,0.6851149 0.5609575,1.2441449 1.2460725,1.2441449 0.6851149,0 1.2441449,-0.55903 1.2441449,-1.2441449 0,-0.685115 -0.55903,-1.2461103 -1.2441449,-1.2461103 z m 0,0.4160504 c 0.4608756,0 0.8300976,0.3692599 0.8300976,0.8300599 0,0.4608378 -0.3692598,0.8300976 -0.8300976,0.8300976 -0.4608378,0 -0.8300599,-0.3692598 -0.8300599,-0.8300976 0,-0.4608378 0.3692599,-0.8300599 0.8300599,-0.8300599 z"
     id="path1038" />
</svg>
